X: 1
T: Edmund MacKenzie of Plockton
C: Andrew Rankine
S: Sylvia Miskoe (White Cockade)
R: jig
Z: 2006 John Chambers <jc:trillian.mit.edu>
M: 6/8
L: 1/8
K: G
|: "G"DEF GAB | "G"d2d  B3 |1,3 "D7"c2c A3  | "G"d2d     B3  :|2,4 "D"d^cd =cAF | "G"G3 G3 :|
|: "C"e3  c3  | "G"d^cd B3 |1,3 "D7"cBc DFA | "G"d2c "G7"B2B :|2,4 "D7"ded  cBA | "G"G3 G3 :|
